src/lib/packages/icons/src/assets/filled/quote.svg

<svg xmlns="http://www.w3.org/2000/svg" width="24" height="24" fill="none"><path fill="currentColor" d="m20.84 13.32-2.57 5.13a1 1 0 0 1-.89.55h-2.57c-.37 0-.61-.39-.45-.72L17 13h-2.5c-.83 0-1.5-.67-1.5-1.5v-5c0-.83.67-1.5 1.5-1.5h5c.83 0 1.5.67 1.5 1.5v6.15c0 .23-.05.46-.16.67ZM11 12.65V6.5c0-.83-.67-1.5-1.5-1.5h-5C3.67 5 3 5.67 3 6.5v5c0 .83.67 1.5 1.5 1.5H7l-2.64 5.28c-.17.33.08.72.45.72h2.57c.38 0 .73-.21.89-.55l2.57-5.13c.1-.21.16-.44.16-.67Z"/></svg>

<svg width="24" height="24" viewBox="0 0 24 24" fill="none" xmlns="http://www.w3.org/2000/svg">
<path d="M20.84 13.32L18.27 18.45C18.1 18.79 17.75 19 17.38 19H14.81C14.44 19 14.2 18.61 14.36 18.28L17 13H14.5C13.67 13 13 12.33 13 11.5V6.5C13 5.67 13.67 5 14.5 5H19.5C20.33 5 21 5.67 21 6.5V12.65C21 12.88 20.95 13.11 20.84 13.32ZM11 12.65V6.5C11 5.67 10.33 5 9.5 5H4.5C3.67 5 3 5.67 3 6.5V11.5C3 12.33 3.67 13 4.5 13H7L4.36 18.28C4.19 18.61 4.44 19 4.81 19H7.38C7.76 19 8.11 18.79 8.27 18.45L10.84 13.32C10.94 13.11 11 12.88 11 12.65Z" fill="currentColor"/>
</svg>
